docs/images/status-bar-i-phone.svg

<svg width="320" height="50" viewBox="0 0 320 50" fill="none" xmlns="http://www.w3.org/2000/svg">
<rect width="320" height="50" fill="white"/>
<path d="M41.2666 16.7231C41.9085 16.7231 42.5173 16.8421 43.0928 17.0801C43.6683 17.3125 44.1774 17.6777 44.6201 18.1758C45.0684 18.6683 45.4198 19.3019 45.6743 20.0767C45.9289 20.8459 46.0562 21.7728 46.0562 22.8574V22.874C46.0562 24.2188 45.8625 25.3698 45.4751 26.3271C45.0877 27.2845 44.5316 28.0205 43.8066 28.5352C43.0872 29.0443 42.2267 29.2988 41.2251 29.2988C40.4891 29.2988 39.825 29.166 39.2329 28.9004C38.6463 28.6292 38.1593 28.2585 37.772 27.7881C37.3901 27.3122 37.1328 26.7699 37 26.1611L36.9834 26.0698H39.0835L39.1167 26.1528C39.2218 26.4295 39.3713 26.673 39.5649 26.8833C39.7642 27.0936 40.0021 27.2568 40.2788 27.373C40.561 27.4837 40.8765 27.5391 41.2251 27.5391C41.856 27.5391 42.3706 27.3537 42.769 26.9829C43.173 26.6066 43.4746 26.1058 43.6738 25.4805C43.8786 24.8496 43.9948 24.1523 44.0225 23.3887C44.028 23.3057 44.0308 23.2254 44.0308 23.1479C44.0308 23.0649 44.0308 22.9847 44.0308 22.9072L43.6572 20.9067C43.6572 20.453 43.5521 20.0407 43.3418 19.6699C43.1315 19.2992 42.8465 19.0059 42.4868 18.79C42.1326 18.5742 41.7314 18.4663 41.2832 18.4663C40.8516 18.4663 40.4559 18.5715 40.0962 18.7817C39.7365 18.992 39.4487 19.2798 39.2329 19.645C39.0171 20.0047 38.9092 20.4087 38.9092 20.8569V20.8735C38.9092 21.3384 39.0116 21.7507 39.2163 22.1104C39.4211 22.4645 39.7005 22.744 40.0547 22.9487C40.4089 23.1535 40.8128 23.2559 41.2666 23.2559C41.7204 23.2559 42.1271 23.1562 42.4868 22.957C42.8465 22.7578 43.1315 22.4811 43.3418 22.127C43.5521 21.7728 43.6572 21.3716 43.6572 20.9233V20.9067H44.1553V23.1147H43.8647C43.7209 23.4302 43.5078 23.7235 43.2256 23.9946C42.9434 24.2658 42.5947 24.4844 42.1797 24.6504C41.7702 24.8164 41.2887 24.8994 40.7354 24.8994C39.9717 24.8994 39.2965 24.7279 38.71 24.3848C38.1234 24.0417 37.6613 23.5713 37.3237 22.9736C36.9917 22.376 36.8257 21.7008 36.8257 20.9482V20.9316C36.8257 20.1182 37.0138 19.396 37.3901 18.7651C37.772 18.1287 38.2977 17.6307 38.9673 17.271C39.6424 16.9058 40.4089 16.7231 41.2666 16.7231ZM49.8247 27.3896C49.4484 27.3896 49.133 27.2651 48.8784 27.0161C48.6294 26.7616 48.5049 26.4517 48.5049 26.0864C48.5049 25.7157 48.6294 25.4058 48.8784 25.1567C49.133 24.9022 49.4484 24.7749 49.8247 24.7749C50.2065 24.7749 50.522 24.9022 50.771 25.1567C51.02 25.4058 51.1445 25.7157 51.1445 26.0864C51.1445 26.4517 51.02 26.7616 50.771 27.0161C50.522 27.2651 50.2065 27.3896 49.8247 27.3896ZM49.8247 21.2305C49.4484 21.2305 49.133 21.106 48.8784 20.8569C48.6294 20.6024 48.5049 20.2925 48.5049 19.9272C48.5049 19.5565 48.6294 19.2466 48.8784 18.9976C49.133 18.743 49.4484 18.6157 49.8247 18.6157C50.2065 18.6157 50.522 18.743 50.771 18.9976C51.02 19.2466 51.1445 19.5565 51.1445 19.9272C51.1445 20.2925 51.02 20.6024 50.771 20.8569C50.522 21.106 50.2065 21.2305 49.8247 21.2305ZM59.4038 29V26.7007H53.5435V24.9492C53.8589 24.4124 54.1743 23.8729 54.4897 23.3306C54.8107 22.7882 55.1344 22.2487 55.4609 21.7119C55.793 21.1696 56.1222 20.6356 56.4487 20.1099C56.7808 19.5786 57.11 19.0557 57.4365 18.541C57.7686 18.0208 58.1006 17.5145 58.4326 17.022H61.4458V24.9326H63.0645V26.7007H61.4458V29H59.4038ZM55.5356 24.9824H59.437V18.7319H59.3125C59.069 19.1082 58.8172 19.4956 58.5571 19.894C58.3026 20.2925 58.0452 20.6992 57.7852 21.1143C57.5251 21.5293 57.2677 21.9471 57.0132 22.3677C56.7586 22.7827 56.5068 23.2005 56.2578 23.6211C56.0088 24.0361 55.7681 24.4484 55.5356 24.8579V24.9824ZM68.02 29V19.1304H67.8706L64.8906 21.2305V19.2217L68.02 17.022H70.1533V29H68.02Z" fill="black"/>
<path fill-rule="evenodd" clip-rule="evenodd" d="M246.365 18.033C246.365 17.4 245.888 16.8868 245.298 16.8868H244.232C243.643 16.8868 243.165 17.4 243.165 18.033V27.967C243.165 28.6 243.643 29.1132 244.232 29.1132H245.298C245.888 29.1132 246.365 28.6 246.365 27.967V18.033ZM238.931 19.3321H239.998C240.587 19.3321 241.064 19.8576 241.064 20.5058V27.9395C241.064 28.5877 240.587 29.1132 239.998 29.1132H238.931C238.342 29.1132 237.864 28.5877 237.864 27.9395V20.5058C237.864 19.8576 238.342 19.3321 238.931 19.3321ZM234.599 21.9811H233.533C232.944 21.9811 232.466 22.5133 232.466 23.1698V27.9245C232.466 28.581 232.944 29.1132 233.533 29.1132H234.599C235.188 29.1132 235.666 28.581 235.666 27.9245V23.1698C235.666 22.5133 235.188 21.9811 234.599 21.9811ZM229.298 24.4264H228.232C227.643 24.4264 227.165 24.951 227.165 25.5981V27.9415C227.165 28.5886 227.643 29.1132 228.232 29.1132H229.298C229.888 29.1132 230.365 28.5886 230.365 27.9415V25.5981C230.365 24.951 229.888 24.4264 229.298 24.4264Z" fill="black"/>
<path fill-rule="evenodd" clip-rule="evenodd" d="M261.936 19.3021C264.424 19.3022 266.816 20.2243 268.618 21.8778C268.754 22.0054 268.971 22.0038 269.104 21.8742L270.402 20.6107C270.47 20.545 270.507 20.4559 270.507 20.3632C270.506 20.2705 270.467 20.1819 270.399 20.1169C265.668 15.7422 258.204 15.7422 253.473 20.1169C253.405 20.1818 253.366 20.2704 253.365 20.3631C253.364 20.4558 253.402 20.5449 253.47 20.6107L254.768 21.8742C254.901 22.004 255.118 22.0056 255.254 21.8778C257.057 20.2242 259.449 19.3021 261.936 19.3021ZM261.933 23.5224C263.29 23.5223 264.599 24.0341 265.605 24.9582C265.741 25.0893 265.956 25.0865 266.088 24.9518L267.376 23.6325C267.444 23.5633 267.481 23.4694 267.48 23.3718C267.479 23.2743 267.44 23.1812 267.371 23.1134C264.307 20.2226 259.562 20.2226 256.498 23.1134C256.429 23.1812 256.389 23.2743 256.389 23.3719C256.388 23.4695 256.425 23.5634 256.493 23.6325L257.78 24.9518C257.913 25.0865 258.127 25.0893 258.263 24.9582C259.269 24.0347 260.577 23.523 261.933 23.5224ZM264.457 26.316C264.459 26.4213 264.422 26.5229 264.355 26.5967L262.178 29.0514C262.115 29.1236 262.028 29.1642 261.937 29.1642C261.846 29.1642 261.759 29.1236 261.695 29.0514L259.518 26.5967C259.451 26.5228 259.414 26.4212 259.416 26.3159C259.418 26.2105 259.459 26.1108 259.529 26.0401C260.919 24.7262 262.955 24.7262 264.345 26.0401C264.415 26.1108 264.456 26.2106 264.457 26.316Z" fill="black"/>
<rect opacity="0.35" x="278.007" y="17" width="24" height="12" rx="3.8" stroke="black"/>
<path opacity="0.4" d="M303.507 21.2811V25.3566C304.312 25.0114 304.835 24.2085 304.835 23.3189C304.835 22.4293 304.312 21.6263 303.507 21.2811Z" fill="black"/>
<rect x="279.507" y="18.5" width="21" height="9" rx="2.5" fill="black"/>
</svg>

<svg xmlns="http://www.w3.org/2000/svg" width="320" height="50" fill="none" viewBox="0 0 320 50"><path fill="#fff" d="M0 0h320v50H0z"/><path fill="#000" d="M41.267 16.723q.962 0 1.826.357a4.1 4.1 0 0 1 1.527 1.096q.672.739 1.054 1.9.382 1.155.382 2.781v.017q0 2.017-.58 3.453-.581 1.436-1.67 2.208-1.08.765-2.58.764-1.105 0-1.993-.399a4.1 4.1 0 0 1-1.461-1.112A3.9 3.9 0 0 1 37 26.161l-.017-.091h2.1l.034.083q.157.415.448.73.3.316.714.49.423.165.946.166.947 0 1.544-.556.606-.564.905-1.503.306-.946.349-2.091.008-.125.008-.241v-.24l-.374-2.001q0-.68-.315-1.237a2.4 2.4 0 0 0-.855-.88 2.27 2.27 0 0 0-1.204-.324 2.3 2.3 0 0 0-1.187.316q-.54.315-.863.863a2.3 2.3 0 0 0-.324 1.212v.017q0 .697.307 1.236.307.532.839.839.531.307 1.212.307t1.22-.299.855-.83.315-1.204v-.016h.498v2.208h-.29a2.9 2.9 0 0 1-.64.88q-.423.406-1.045.655-.614.25-1.445.25-1.145 0-2.025-.515a3.73 3.73 0 0 1-1.386-1.411q-.498-.897-.498-2.026v-.016q0-1.22.564-2.167a4 4 0 0 1 1.577-1.494q1.013-.548 2.3-.548m8.558 10.667a1.3 1.3 0 0 1-.947-.374 1.28 1.28 0 0 1-.373-.93q0-.555.373-.93.382-.381.947-.381.572 0 .946.382.373.373.373.93 0 .547-.373.93-.374.373-.946.373m0-6.16a1.3 1.3 0 0 1-.947-.373 1.28 1.28 0 0 1-.373-.93q0-.555.373-.93.382-.381.947-.381.572 0 .946.382.373.373.373.93 0 .546-.373.929-.374.373-.946.373M59.404 29v-2.3h-5.86v-1.75l.946-1.62a156 156 0 0 1 1.959-3.22q.498-.796.988-1.569.498-.78.996-1.519h3.013v7.91h1.619v1.769h-1.62V29zm-3.868-4.018h3.901v-6.25h-.124l-.756 1.162q-.381.598-.772 1.22-.39.622-.772 1.254-.381.623-.755 1.253-.374.622-.722 1.237zM68.02 29v-9.87h-.15l-2.98 2.1v-2.008l3.13-2.2h2.133V29z"/><path fill="#000" fill-rule="evenodd" d="M246.365 18.033c0-.633-.477-1.146-1.067-1.146h-1.066c-.589 0-1.067.513-1.067 1.146v9.934c0 .633.478 1.146 1.067 1.146h1.066c.59 0 1.067-.513 1.067-1.146zm-7.434 1.3h1.067c.589 0 1.066.525 1.066 1.173v7.433c0 .649-.477 1.174-1.066 1.174h-1.067c-.589 0-1.067-.525-1.067-1.174v-7.433c0-.648.478-1.174 1.067-1.174m-4.332 2.648h-1.066c-.589 0-1.067.532-1.067 1.189v4.754c0 .657.478 1.19 1.067 1.19h1.066c.589 0 1.067-.533 1.067-1.19V23.17c0-.657-.478-1.189-1.067-1.189m-5.301 2.445h-1.066c-.589 0-1.067.525-1.067 1.172v2.344c0 .647.478 1.171 1.067 1.171h1.066c.59 0 1.067-.524 1.067-1.171v-2.344c0-.647-.477-1.172-1.067-1.172m32.638-5.124c2.488 0 4.88.922 6.682 2.576a.354.354 0 0 0 .486-.004l1.298-1.263a.34.34 0 0 0 .105-.248.35.35 0 0 0-.108-.246c-4.731-4.375-12.195-4.375-16.926 0a.34.34 0 0 0-.003.494l1.298 1.263c.133.13.35.132.486.004a9.9 9.9 0 0 1 6.682-2.576m-.003 4.22c1.357 0 2.666.512 3.672 1.436a.34.34 0 0 0 .483-.006l1.288-1.32a.367.367 0 0 0-.005-.52 7.9 7.9 0 0 0-10.873.001.36.36 0 0 0-.109.259.37.37 0 0 0 .104.26l1.287 1.32a.34.34 0 0 0 .483.006 5.43 5.43 0 0 1 3.67-1.436m2.524 2.794a.4.4 0 0 1-.102.28l-2.177 2.455a.32.32 0 0 1-.241.113.32.32 0 0 1-.242-.113l-2.177-2.454a.4.4 0 0 1-.102-.281.4.4 0 0 1 .113-.276c1.39-1.314 3.426-1.314 4.816 0 .07.07.111.17.112.276" clip-rule="evenodd"/><rect width="24" height="12" x="278.007" y="17" stroke="#000" opacity="0.35" rx="3.8"/><path fill="#000" d="M303.507 21.281v4.076a2.21 2.21 0 0 0 1.328-2.038c0-.89-.523-1.693-1.328-2.038" opacity="0.4"/><rect width="21" height="9" x="279.507" y="18.5" fill="#000" rx="2.5"/></svg>
